X: 581
T: Peckets Hornpipe
M:3/2
L:1/8
S: 8: MCJLSH3 http://www.cpartington.plus.com/links/Walsh.abc
Z: Pete Stewart 2004
B: Walsh "Third Book of the most Celebrated jiggs, Lancashire hornpipes, ..."
K:E
agfe defd e2E2 | GABGF2f2d4 | cBAc BAGBe2G2 | AGFDB,2^D2E4 ||
GBGE GBGE^D2F2 | AcAF AcAFG2B2 | fafd egec dfdB | agfe Bedfe4 ||

%%sep 1 1 500
%%sep 1 1 500
